X:1
T:Title
%%score { ( 1 3 ) | ( 2 4 ) }
L:1/8
Q:1/4=106
M:4/4
K:D
V:1 treble nm="Grand Piano"
V:3 treble 
V:2 bass 
V:4 bass 
V:1
 [DF]2 [FA]2 [FA]2 [Fd]2 | [GB]2 [FA]2 [FA]2 [A,DF]2 | [A,FA]2 [CEG]2 [CEG]4 | [GB]2 [FA]2 [FA]4 | %4
w: Chas.~H.~Gabriel * * *||||
 [DF]2 [FA]2 [FA]2 [Fd]2 | [GB]2 [FA]2 [FA]2 F2 | E2 c2 d2 ^G2 | [CEA]6 z2 | %8
w: ||||
 [EGc]2 [EGc]2 [EGB]2 [Gc]2 | [Fd]2 [GB]2 [FA]4 | [CEA]2 [A,CE]2 [A,DF]2 [CEG]2 | %11
w: |||
 [DGB]2 [DFA]2 [DFA]4 | [EGc]2 [EGc]2 [EGB]2 [Gc]2 | [Fd]2 [DGB]2 F2- [FB]2 | c2 e2 d2 B2 | A8 | %16
w: |||||
 [Fd]3 [Ge] [Fd]2 [B,GB]2 | [DFA]2 [A,DF]2 [DFA]2 [DFd]2 | [EGc]2 [CEG]2 [CEG]4 | %19
w: |||
 [GB]2 [FA]2 [FA]4 | [Fd]3 [Ge] [Fd]2 [GB]2 | [FA]2 [DF]2 [FA]2 [Dd]2 | [Ec]2 [EGc]2 [CGB]2 [Gc]2 | %23
w: ||||
 d8 |] %24
w: |
V:2
 [D,A,]2 [D,D]2 [D,D]2 [D,D]2 | [D,D]2 [D,D]2 [D,D]2 D,2 | A,,2 A,,2 A,,4 | [D,D]2 [D,D]2 [D,D]4 | %4
 [D,A,]2 [D,D]2 [D,D]2 [D,D]2 | [D,D]2 [D,D]2 [D,D]2 [D,A,D]2 | %6
 [E,A,C]2 [E,A,E]2 [E,B,E]2 [E,DE]2 | A,,6 z2 | A,,2 A,,2 A,,2 [A,,A,]2 | [D,A,]2 [D,D]2 [D,D]4 | %10
 A,,2 A,,2 A,,2 A,,2 | D,2 D,2 D,4 | A,,2 A,,2 A,,2 [A,,A,]2 | [D,A,]2 D,2 z2 A,2 | %14
 [E,A,E]2 [E,CE]2 [E,B,E]2 [E,DE]2 | A,,2 A,,2 A,,4 | [D,A,]3 [D,A,] [D,A,]2 D,2 | %17
 D,2 D,2 D,2 D,2 | A,,2 A,,2 A,,4 | [D,D]2 [D,D]2 [D,D]4 | [D,A,]3 [D,A,] [D,A,]2 [D,B,]2 | %21
 [D,D]2 [D,A,]2 [D,D]2 [F,A,]2 | A,2 A,2 A,,2 [A,,A,]2 | [D,A,]2 [D,B,]2 [D,A,]4 |] %24
V:3
 x8 | x8 | x8 | x8 | x8 | x8 | x8 | x8 | x8 | x8 | x8 | x8 | x8 | z4 [DA]2 z2 | x8 | %15
 [CE]2 [DF]2 [EG]4 | x8 | x8 | x8 | x8 | x8 | x8 | x8 | F2 G2 F4 |] %24
V:4
 x8 | x8 | x8 | x8 | x8 | x8 | x8 | x8 | x8 | x8 | x8 | x8 | x8 | z4 D,4 | x8 | x8 | x8 | x8 | x8 | %19
 x8 | x8 | x8 | x8 | x8 |] %24

